X:4
T:Oif'n Pripitchik
T:Kometz Alef O
C:M. Warshavski
B:Hebrew and Jewish Songs and Dances, Elsie M. Bennett
B:Pietro Deiro Publications #829, 1951
M:3/4
L:1/8
P:Slowly
K:Dm
"Dm"DE FF F2 | "A7"EG FE "Dm"D2 | "A7"EE F2 G2 | "Dm"[F3A3] |
|: "Ddim"dA cB GE | "Dm"GB AF D2 \
|1 "A7"EG F2 G2 | "Dm"[F3A3] :|2 "A7"EG F2 E2 | "Dm"D3 ||
"A7"DF E^C A,2 | EG FE "Dm"D2 | "A7"FE F2 G2 | "Dm"[F3A3] |
|: "Ddim"dA cB GE | "Dm"GB AF D2 \
|1 "A7"EG F2 G2 | "Dm"[F3A3] :|2 "A7"EG F2 E2 | "Dm"D3 ||
